X: 1
T: Father Kelly's
M: 6/8
L: 1/8
R: jig
K: Dmaj
|:f3 dfd|AdA F2D|G3 EGF|Eed cBA|
faf dfd|AdA F2D|G3 Ecd|1ecA d2g:|2ecA dcB||
|:ABA FED| FAD FED|CEC A,CE|CEA cBA|
F2A AFD|GFE EFD|CEC A,CE|1GEC DcB:|2GEC D2E||
|:F2A d3|ede fdB|gfe d3|Bcd edB|
AFA d3|edB gfe|dcB Ace|1cAc dAG:|2cAc D2 g||
